X: 30867
T: Out On The Ocean
R: jig
M: 6/8
K: Gmajor
|:G|GAA BAB|Bgg B/c/BA|GED G2 A|BAA AGE|
GAA BAB|Bgg B/c/BA|GED G2 A|BGG G2:|
|:d|e2 g e2 d|efg edB|d2 e d2 B|dee dBG|
{c/}BBA Bcd|efg B/c/BA|GED G2 A|BGG G2:|

